X:1
T:Title
L:1/8
M:4/4
K:Ab
V:1 treble nm="Grand Piano"
V:1
 z4 z2 z[Q:1/4=100] C | DE F2- F F2 F | E2 G2 F3 E | F2 ED C3 B, | EDDC C3 C | DEFF- F G2 A | %6
 BcAB G3 F | EDCB, E3 D | FEDE C3 B | c2 c2- c c2 c | B2 dd c3 B | e2 ed d3 c | B2 d2 c3 B | %13
 cBAG BAGF | AGFE D3 B, | G2 FE D3 B, | FEDE C4 |] %17

